X:1
T:Old Bell Cow (R-153)
R:reel
Z:
M:C|
L:1/8
K:A
"A"A=cA=G EGED | CA,2CA,3A, | A,B,CE A2A=G | "D"FD2F D3A- |
"A"A=cA=G EGED | CA,2C A,2CB, |A,B,CE AEA=G |1 "D"FD2E D3A-:|2 "D"FD2E D4 |]
|: "A"e3f e2ed | cdef e2A2 | "G"d2d2 BA=GB | dBd=c B=G3 |
"A"e3f e2ed | cdef efef | "G"=gfgf efed | "A"cABc A4 :|
["Ending"E4 ^C4|A,4|]
%%vskip 3cm
%
A4E4|^C4A,4|
%
